X:45
T:Avrameanca
O:rumania
M:4/4
L:1/8
Q:1/4=132
K:A
V:1
f3/2 e/e/_e/e/ f/ec Ac |BB B/c/d/B/ cB A/c/e |f3/2 e/e/_e/e/ f/ec Ac |BB B/c/d/B/ cB A2 :| |:
BB/_B/ B/c/d/B/ cB A/c/e/A/ |BB/_B/ B/c/d/B/ cB A2 |BB/_B/ B/c/d/B/ cB A/c/e/A/ |BB/_B/ B/c/d/B/ cB A2 :| |:
ce2 Ec e2 E|B B/_B/B/c/ d/B/c BA/c/ e|c e2 Ec e2 E|B B/_B/B/c/ d/B/c BA2 :|
